src/16/panel/si-syncthing-9.svg

<svg xmlns="http://www.w3.org/2000/svg" width="16" height="16" version="1.1">
 <defs>
  <style id="current-color-scheme" type="text/css">
   .ColorScheme-Text { color:#bebebe; } .ColorScheme-Highlight { color:#5294e2; }
  </style>
 </defs>
 <path style="fill:currentColor" class="ColorScheme-Text" d="M 1.9378222,11.5 A 7,7 0 0 0 11.5,14.062178 7,7 0 0 0 14.062178,4.5000001 7,7 0 0 0 4.5000002,1.9378222 7,7 0 0 0 1.9378222,11.5 Z m 1.732051,-1 A 5,5 0 0 1 4.7289252,4.2210515 1.5,1.5 0 0 1 5.4330132,2.5538483 1.5,1.5 0 0 1 7.439605,3.037181 5,5 0 0 1 10.970108,3.9803172 1.5,1.5 0 0 1 12.946153,4.5669884 1.5,1.5 0 0 1 12.720616,6.3638486 5,5 0 0 1 10.5,12.330127 5,5 0 0 1 10.424574,12.371369 1.5,1.5 0 0 1 9.7009365,13.946116 1.5,1.5 0 0 1 7.6518981,13.397078 1.5,1.5 0 0 1 7.4869461,12.966834 5,5 0 0 1 3.6698729,10.500004 Z M 4.5358982,10 a 4,4 0 0 0 3.073601,1.975979 1.5,1.5 0 0 1 0.591463,-0.627903 1.5,1.5 0 0 1 0.054382,-0.02689 L 7.8906128,8.7870981 A 1.5,1.5 0 0 1 6.8839748,8.0669875 1.5,1.5 0 0 1 7.0439455,6.3440649 L 6.4560548,5.3258082 A 1.5,1.5 0 0 1 5.2963922,5.0594017 4,4 0 0 0 4.5358982,10 Z m 4.7084407,1.178696 A 1.5,1.5 0 0 1 9.9202411,11.505639 4,4 0 0 0 10,11.464102 4,4 0 0 0 11.814361,6.8058855 1.5,1.5 0 0 1 10.674192,6.4560546 l -1.0182565,0.587891 a 1.5,1.5 0 0 1 -0.7229226,1.57208 1.5,1.5 0 0 1 -0.054391,0.026888 L 9.2443389,11.178696 Z M 7.909971,5.8440652 A 1.5,1.5 0 0 1 9.1559353,6.1779203 L 10.174192,5.5900291 A 1.5,1.5 0 0 1 10.276654,4.7167192 4,4 0 0 0 7.6726686,4.018983 1.5,1.5 0 0 1 7.3220766,4.8258062 l 0.5878943,1.0182589 z"/>
</svg>

<svg xmlns="http://www.w3.org/2000/svg" width="16" height="16"><defs><style id="current-color-scheme" type="text/css"></style></defs><path d="M1.938 11.5a7 7 0 0 0 9.562 2.562A7 7 0 0 0 14.062 4.5 7 7 0 0 0 4.5 1.938 7 7 0 0 0 1.938 11.5zm1.732-1a5 5 0 0 1 1.059-6.279 1.5 1.5 0 0 1 .704-1.667 1.5 1.5 0 0 1 2.007.483 5 5 0 0 1 3.53.943 1.5 1.5 0 0 1 1.976.587 1.5 1.5 0 0 1-.225 1.797A5 5 0 0 1 10.5 12.33a5 5 0 0 1-.075.041 1.5 1.5 0 0 1-.724 1.575 1.5 1.5 0 0 1-2.05-.549 1.5 1.5 0 0 1-.164-.43A5 5 0 0 1 3.67 10.5zm.866-.5a4 4 0 0 0 3.073 1.976 1.5 1.5 0 0 1 .592-.628 1.5 1.5 0 0 1 .054-.027l-.364-2.534a1.5 1.5 0 0 1-1.007-.72 1.5 1.5 0 0 1 .16-1.723l-.588-1.018a1.5 1.5 0 0 1-1.16-.267A4 4 0 0 0 4.536 10zm4.708 1.179a1.5 1.5 0 0 1 .676.327 4 4 0 0 0 .08-.042 4 4 0 0 0 1.814-4.658 1.5 1.5 0 0 1-1.14-.35l-1.018.588a1.5 1.5 0 0 1-.723 1.572 1.5 1.5 0 0 1-.054.027l.365 2.536zM7.91 5.844a1.5 1.5 0 0 1 1.246.334l1.018-.588a1.5 1.5 0 0 1 .103-.873 4 4 0 0 0-2.604-.698 1.5 1.5 0 0 1-.35.807l.587 1.018z" fill="currentColor" color="#bebebe"/></svg>
